svgs/duotone/plane-up-slash.svg

<svg xmlns="http://www.w3.org/2000/svg" viewBox="0 0 640 512"><!--! Font Awesome Pro 6.1.1 by @fontawesome - https://fontawesome.com License - https://fontawesome.com/license (Commercial License) Copyright 2022 Fonticons, Inc. --><defs><style>.fa-secondary{opacity:.4}</style></defs><path class="fa-primary" d="M5.112 9.196C13.29-1.236 28.37-3.065 38.81 5.112L630.8 469.1C641.2 477.3 643.1 492.4 634.9 502.8C626.7 513.2 611.6 515.1 601.2 506.9L9.196 42.89C-1.236 34.71-3.065 19.63 5.112 9.196V9.196z"/><path class="fa-secondary" d="M245.4 167.1L256 160V93.68C256 59.53 285 0 320 0C356 0 384 59.53 384 93.68V160L561.8 278.5C570.7 284.4 576 294.4 576 305.1V361.8C576 372.7 565.3 380.4 554.9 376.1L482.4 352.8L245.4 167.1zM161.3 223.1L445.9 447.3C447.3 449.7 448 452.4 448 455.3V497.1C448 505.7 441.7 512 433.1 512C432.7 512 431.4 511.8 430.1 511.5L320 480L209.9 511.5C208.6 511.8 207.3 512 206 512C198.3 512 192 505.7 192 497.1V456C192 450.1 194.4 446.2 198.4 443.2L256 400V320L85.06 376.1C74.7 380.4 64 372.7 64 361.8V305.1C64 294.4 69.35 284.4 78.25 278.5L161.3 223.1z"/></svg>

<svg xmlns="http://www.w3.org/2000/svg" viewBox="0 0 640 512"><!--! Font Awesome Pro 6.5.1 by @fontawesome - https://fontawesome.com License - https://fontawesome.com/license (Commercial License) Copyright 2023 Fonticons, Inc. --><defs><style>.fa-secondary{opacity:.4}</style></defs><path class="fa-secondary" d="M161.3 223.1L445.9 447.3c1.4 2.4 2.1 5.1 2.1 8V498c0 7.8-6.3 14-14 14c-1.3 0-2.6-.2-3.9-.5L320 480 209.9 511.5c-1.3 .4-2.6 .5-3.9 .5c-7.8 0-14-6.3-14-14V456c0-5 2.4-9.8 6.4-12.8L256 400V320L85.1 377C74.7 380.4 64 372.7 64 361.8V305.1c0-10.7 5.3-20.7 14.2-26.6l83.1-55.4zM554.9 377l-72.5-24.2-237-185.8L256 160V93.7C256 59.5 285 0 320 0c36 0 64 59.5 64 93.7l0 66.3L561.8 278.5c8.9 5.9 14.2 15.9 14.2 26.6v56.7c0 10.9-10.7 18.6-21.1 15.2z"/><path class="fa-primary" d="M5.1 9.2C13.3-1.2 28.4-3.1 38.8 5.1l592 464c10.4 8.2 12.3 23.3 4.1 33.7s-23.3 12.3-33.7 4.1L9.2 42.9C-1.2 34.7-3.1 19.6 5.1 9.2z"/></svg>
